X: 2
T: My Own Dear Galway Bay
M: 3/4
C: Francis A. Fahy
R: waltz
L: 1/8
Z: Alf warnock 
K: A Major
E2 |\ 
&quot;A&quot; A,4 C2 | &quot;C#m&quot; E4 A2 | &quot;D&quot; F3 E F2 | &quot;A&quot; E2 C2 B,2 | 
&quot;C#m&quot; C3 B, C2 | &quot;D&quot; A,4 A,2 | &quot;A&quot; A,6 - | A,4 C2 |
E4 E2 | &quot;E7&quot; B4 G2 | &quot;A&quot; A4 C2 | &quot;D&quot; D4 F2 | 
F4 A2 | A2 G2 F2 | &quot;E7&quot; E6 - | E6 |
E4 E2 | &quot;Bm&quot; B4 G2 | &quot;A&quot; A4 C2 | &quot;D&quot; D4 F2 | 
F4 A2 | A2 G2 F2 | &quot;E7&quot; E6 - | E4 E2 |
&quot;A&quot; A,4 C2 | &quot;E&quot; E4 A2 | &quot;D&quot; F3 E F2 | &quot;A&quot; E2 C2 B,2 | 
C3 B, C2 | &quot;D&quot; A,4 A,2 | &quot;A&quot; A,6 - | A,6 |]
